docs/img/type/type-card-star2.svg

<svg width="230" height="192" viewBox="0 0 230 192" fill="none" xmlns="http://www.w3.org/2000/svg">
<mask id="mask0_10_105" style="mask-type:alpha" maskUnits="userSpaceOnUse" x="0" y="0" width="230" height="192">
<path d="M0 5C0 2.23858 2.23858 0 5 0H225C227.761 0 230 2.23858 230 5V192H0V5Z" fill="white"/>
</mask>
<g mask="url(#mask0_10_105)">
<path d="M182.431 -18.8566C186.167 -33.4736 204.887 -37.7136 214.556 -26.1327L239.712 3.99692C242.497 7.33232 246.227 9.74567 250.411 10.9189L282.562 19.9347C295.875 23.6682 298.892 41.1816 287.595 49.1549L262.594 66.8008C258.578 69.6346 255.655 73.7585 254.311 78.4856L243.37 116.961C239.134 131.856 219.565 135.266 210.541 122.681L188.934 92.5492C185.753 88.1121 181.002 85.0518 175.647 83.9891L149.296 78.7605C133.577 75.6415 128.988 55.3726 141.831 45.7879L165.495 28.1278C169.436 25.187 172.249 20.9845 173.466 16.2207L182.431 -18.8566Z" stroke="#FAED00" stroke-opacity="0.6" stroke-width="3"/>
<path d="M195.304 1.72603C197.02 -4.98992 205.622 -6.93801 210.064 -1.61704L229.887 22.1252C231.377 23.9092 233.372 25.2001 235.61 25.8276L259.524 32.5338C266.418 34.4668 267.98 43.5344 262.131 47.6626L243.189 61.0313C241.041 62.5471 239.478 64.7529 238.759 67.2814L230.051 97.9029C228.105 104.747 219.114 106.313 214.967 100.531L197.429 76.0734C195.728 73.7001 193.187 72.0631 190.322 71.4947L166.689 66.8054C159.467 65.3723 157.358 56.0596 163.259 51.6558L183.831 36.3031C185.939 34.7301 187.444 32.4822 188.095 29.9342L195.304 1.72603Z" stroke="#FAED00" stroke-opacity="0.8" stroke-width="3"/>
<path d="M176.967 -45.9502C180.702 -60.5672 199.422 -64.8072 209.092 -53.2262L247.911 -6.73241C250.695 -3.39701 254.426 -0.983674 258.609 0.189542L305.303 13.2834C320.306 17.4906 323.706 37.226 310.975 46.2109L274.031 72.2853C270.016 75.1191 267.093 79.243 265.749 83.9701L248.703 143.914C244.467 158.809 224.898 162.219 215.874 149.634L181.567 101.791C178.385 97.3535 173.635 94.2931 168.279 93.2305L122.207 84.0886C106.488 80.9697 101.899 60.7008 114.742 51.1161L154.889 21.1552C158.829 18.2145 161.643 14.0119 162.86 9.24818L176.967 -45.9502Z" stroke="#FAED00" stroke-opacity="0.2" stroke-width="3"/>
</g>
</svg>

<svg width="230" height="192" fill="none" xmlns="http://www.w3.org/2000/svg"><mask id="a" style="mask-type:alpha" maskUnits="userSpaceOnUse" x="0" y="0" width="230" height="192"><path d="M0 5a5 5 0 015-5h220a5 5 0 015 5v187H0V5z" fill="#fff"/></mask><g mask="url(#a)" stroke="#FAED00" stroke-width="3"><path d="M182.431-18.857c3.736-14.617 22.456-18.857 32.125-7.276l25.156 30.13a21.5 21.5 0 0010.699 6.922l32.151 9.016c13.313 3.733 16.33 21.247 5.033 29.22L262.594 66.8a21.495 21.495 0 00-8.283 11.685L243.37 116.96c-4.236 14.895-23.805 18.305-32.829 5.72l-21.607-30.132a21.498 21.498 0 00-13.287-8.56l-26.351-5.229c-15.719-3.119-20.308-23.387-7.465-32.972l23.664-17.66a21.494 21.494 0 007.971-11.907l8.965-35.078z" stroke-opacity=".6"/><path d="M195.304 1.726c1.716-6.716 10.318-8.664 14.76-3.343l19.823 23.742a11.502 11.502 0 005.723 3.703l23.914 6.706c6.894 1.933 8.456 11 2.607 15.129L243.189 61.03a11.498 11.498 0 00-4.43 6.25l-8.708 30.622c-1.946 6.844-10.937 8.41-15.084 2.628l-17.538-24.458a11.496 11.496 0 00-7.107-4.578l-23.633-4.69c-7.222-1.433-9.331-10.745-3.43-15.15l20.572-15.352a11.498 11.498 0 004.264-6.369l7.209-28.208z" stroke-opacity=".8"/><path d="M176.967-45.95c3.735-14.617 22.455-18.857 32.125-7.276l38.819 46.494A21.498 21.498 0 00258.609.19l46.694 13.093c15.003 4.208 18.403 23.943 5.672 32.928l-36.944 26.074a21.498 21.498 0 00-8.282 11.685l-17.046 59.944c-4.236 14.895-23.805 18.305-32.829 5.72l-34.307-47.843a21.499 21.499 0 00-13.288-8.56l-46.072-9.142c-15.719-3.12-20.308-23.388-7.465-32.973l40.147-29.96a21.5 21.5 0 007.971-11.908l14.107-55.198z" stroke-opacity=".2"/></g></svg>
